X:21108 
T:LADY OF THE LAKE, The 
B:DMI.0402
F:file ID dmi1001/108lady_L
Z:Nordberg/Black
R:jig % A-B-A
%Q:1/4=160
M:6/8
L:1/8
K:G
A|B2A G2D|E2D G2A|B2A G2A|Bcd edc|
B2A G2D|E2D G2A|B2d A2c|BGG G2:|
A|B3 B2A|Bdd def|g2f e2d|dBG ABc|
B3 B2A|Bdd def|g2e a2g|fdd d2:|
"repeat mm 1-7, finish on |BGG HG3|"

%%%

